www/assets/icons/av_timer.svg

<svg xmlns="http://www.w3.org/2000/svg" width="24" height="24" viewBox="0 0 24 24" fill='currentColor'><path d="M11 17c0 .55.45 1 1 1s1-.45 1-1-.45-1-1-1-1 .45-1 1m0-14v4h2V5.08c3.39.49 6 3.39 6 6.92 0 3.87-3.13 7-7 7s-7-3.13-7-7c0-1.68.59-3.22 1.58-4.42L12 13l1.41-1.41-6.8-6.8v.02C4.42 6.45 3 9.05 3 12c0 4.97 4.02 9 9 9a9 9 0 0 0 0-18zm7 9c0-.55-.45-1-1-1s-1 .45-1 1 .45 1 1 1 1-.45 1-1M6 12c0 .55.45 1 1 1s1-.45 1-1-.45-1-1-1-1 .45-1 1"/></svg>

<svg width="24" height="24" viewBox="0 0 24 24" xmlns="http://www.w3.org/2000/svg" fill='currentColor'><path d="M11 17C11 17.55 11.45 18 12 18C12.55 18 13 17.55 13 17C13 16.45 12.55 16 12 16C11.45 16 11 16.45 11 17ZM11 3V7H13V5.08C16.39 5.57 19 8.47 19 12C19 15.87 15.87 19 12 19C8.13 19 5 15.87 5 12C5 10.32 5.59 8.78 6.58 7.58L12 13L13.41 11.59L6.61 4.79V4.81C4.42 6.45 3 9.05 3 12C3 16.97 7.02 21 12 21C16.97 21 21 16.97 21 12C21 7.03 16.97 3 12 3H11ZM18 12C18 11.45 17.55 11 17 11C16.45 11 16 11.45 16 12C16 12.55 16.45 13 17 13C17.55 13 18 12.55 18 12ZM6 12C6 12.55 6.45 13 7 13C7.55 13 8 12.55 8 12C8 11.45 7.55 11 7 11C6.45 11 6 11.45 6 12Z"/></svg>
